packages/core/src/svgs/tokens/mono/SPANK.svg

<svg width="24" height="24" viewBox="0 0 24 24" fill="none" xmlns="http://www.w3.org/2000/svg">
<path d="M17.0509 8.15693L15.3768 14.2788L13.9945 14.1816L15.0368 7.86987L17.0509 8.15693ZM15.5909 14.917L15.1557 17.0798L13.3169 16.5446L13.738 14.4693L15.5909 14.917Z" fill="white"/>
<path d="M5.24598 17.5823V17.7117H3.92422V15.2865L3.88304 15.4206L2.61834 15.034L3.33305 12.6977L3.24481 12.8282L2.14893 12.0888L3.51834 10.0583L3.38775 10.1641L2.55598 9.13645L4.52658 7.53999L4.27481 7.63705L3.80128 6.40234L6.15539 5.49882L5.8801 5.51822L5.78774 4.19882L8.25245 4.02646L8.0301 3.97529L8.32775 2.68706L10.6825 3.23058L10.5337 3.14528L11.1948 2L13.2483 3.18588L13.1683 3.09999L14.1354 2.19822L15.7348 3.91293L15.7006 3.84293L16.8889 3.26353L17.9148 5.36705L17.9054 5.30822L19.2112 5.10116L19.5966 7.53057L19.6237 7.35763L20.9295 7.56469L20.5389 10.03L20.6354 9.83236L21.8236 10.4117L20.7236 12.6676L20.8842 12.4952L21.8513 13.397L20.1418 15.23L20.3489 15.1106L21.0101 16.2559L18.8612 17.4964L19.0771 17.4464L19.3748 18.7347L17.0007 19.2829L17.183 19.2958L17.0913 20.6147L14.7147 20.4482L14.8354 20.4953L14.3619 21.7293L12.0866 20.8558L12.2302 20.9724L11.3984 22L9.52074 20.4794L9.61298 20.6165L8.51716 21.3559L7.17481 19.3658L7.21481 19.4965L5.94951 19.8835L5.24598 17.5823ZM5.24598 16.0117L6.07186 15.7587L6.71364 17.8587L7.42775 17.3764L8.64834 19.1859L9.19303 18.5129L10.8853 19.8823L11.1877 19.094L13.2259 19.8764L13.2854 19.0235L15.4659 19.1758L15.2701 18.3258L17.4077 17.8317L16.9648 17.0647L18.8736 15.963L18.2195 15.3536L19.7271 13.737L18.923 13.3447L19.8924 11.3564L19.013 11.2177L19.3583 9.03528L18.5171 9.16823L18.1719 6.98588L17.4143 7.35587L16.4518 5.38234L15.8342 5.95822L14.3454 4.36117L13.9189 5.09882L12.0336 4.01058L11.839 4.85469L9.7177 4.36469L9.77947 5.24528L7.60187 5.39822L7.92422 6.23646L5.87364 7.02352L6.42481 7.70469L4.70423 9.09823L5.4301 9.58819L4.18952 11.4277L5.0254 11.6835L4.37775 13.8029H5.24598V16.0117Z" fill="white"/>
<path d="M11.7408 13.337C11.7408 13.0082 11.625 12.757 11.3932 12.5829C11.1608 12.4053 10.7433 12.2194 10.1403 12.0258C9.53611 11.8289 9.0585 11.6353 8.70673 11.4459C7.74791 10.9277 7.26792 10.2294 7.26792 9.35169C7.26792 8.89469 7.39556 8.48881 7.65027 8.13293C7.90968 7.77293 8.27968 7.49293 8.75909 7.29175C9.24261 7.09057 9.78385 6.98999 10.3832 6.98999C10.9868 6.98999 11.5244 7.09999 11.9961 7.32057C12.4679 7.53705 12.8338 7.84469 13.0927 8.24292C13.3562 8.64176 13.4873 9.09411 13.4873 9.60054H11.7467C11.7467 9.21411 11.625 8.9141 11.3815 8.70116C11.1379 8.48469 10.7956 8.37646 10.3544 8.37646C9.92907 8.37646 9.59856 8.46764 9.36262 8.6494C9.25021 8.72937 9.15911 8.8357 9.09736 8.95909C9.03562 9.08247 9.00511 9.21912 9.0085 9.35705C9.0085 9.63169 9.14556 9.86173 9.42026 10.0476C9.69903 10.2329 10.1067 10.407 10.6444 10.5694C11.635 10.8677 12.3561 11.237 12.8091 11.6776C13.2608 12.1187 13.4873 12.6682 13.4873 13.3252C13.4873 14.0565 13.2108 14.6312 12.658 15.0489C12.105 15.4623 11.3602 15.6694 10.4237 15.6694C9.77438 15.6694 9.18262 15.5518 8.64851 15.3153C8.11497 15.0759 7.70732 14.7488 7.42498 14.3353C7.14614 13.9212 7.00732 13.4412 7.00732 12.8964H8.75321C8.75321 13.8283 9.31032 14.2946 10.4237 14.2946C10.838 14.2946 11.1608 14.2112 11.3932 14.0447C11.625 13.8747 11.7408 13.6388 11.7408 13.337Z" fill="white"/>
</svg>

<svg xmlns="http://www.w3.org/2000/svg" width="24" height="24" fill="none" viewBox="0 0 24 24">
    <path fill="#fff" d="m17.05 8.157-1.673 6.122-1.383-.097 1.043-6.312zm-1.46 6.76-.434 2.163-1.84-.535.422-2.076z"/>
    <path fill="#fff" d="M5.246 17.582v.13H3.924v-2.425l-.041.134-1.265-.387.715-2.336-.088.13-1.096-.74 1.37-2.03-.131.106-.832-1.028 1.97-1.596-.251.097L3.8 6.402 6.155 5.5l-.275.02-.092-1.32 2.464-.173-.222-.05.298-1.289 2.355.544-.15-.086L11.196 2l2.053 1.186-.08-.086.967-.902 1.6 1.715-.034-.07 1.188-.58 1.026 2.104-.01-.059 1.306-.207.386 2.43.027-.173 1.306.207-.391 2.465.096-.198 1.189.58-1.1 2.256.16-.173.967.902-1.71 1.833.208-.12.661 1.146-2.149 1.24.216-.05.298 1.289-2.374.548.182.013-.092 1.319-2.376-.167.12.047-.473 1.234-2.275-.873.143.116L11.398 22l-1.877-1.52.092.136-1.096.74-1.342-1.99.04.13-1.265.388zm0-1.57.826-.253.642 2.1.714-.483 1.22 1.81.545-.673 1.692 1.37.303-.789 2.038.782.06-.853 2.18.153-.196-.85 2.138-.494-.443-.767 1.909-1.102-.654-.61 1.507-1.616-.804-.392.97-1.989-.88-.138.345-2.183-.84.133-.346-2.182-.758.37-.962-1.974-.618.576-1.489-1.597-.426.738-1.885-1.088-.195.844-2.121-.49.061.88-2.177.153.322.838-2.05.788.55.68-1.72 1.394.726.49-1.24 1.84.835.255-.647 2.12h.868z"/>
    <path fill="#fff" d="M11.74 13.337q0-.493-.347-.754-.348-.267-1.253-.557-.906-.295-1.433-.58-1.44-.778-1.44-2.094.001-.685.383-1.22.39-.54 1.11-.84a4.2 4.2 0 0 1 1.623-.302q.905 0 1.613.33.708.326 1.097.923.394.598.394 1.358h-1.74q0-.58-.365-.9-.366-.324-1.028-.325-.637 0-.991.273a.84.84 0 0 0-.354.708q0 .412.411.69.418.279 1.224.522 1.486.448 2.165 1.109.678.66.678 1.647 0 1.097-.829 1.724-.83.62-2.234.62-.974 0-1.775-.354-.801-.36-1.224-.98-.418-.621-.418-1.439h1.746q0 1.399 1.67 1.399.622 0 .97-.25a.83.83 0 0 0 .348-.708"/>
</svg>
